X:1
T:Ashmolean House
R:reel
M:4/4
L:1/8
Z:Bill Reeder  irtrad-l 2000-04-10
K:Dmix
"D"AF~F2 EDBA | "D"D2 (3FED FAA2 | "D"d2 fd efdB | "D"AFDE "A"FEE2 |
"D"AF~F2 EDBA | "D"D2 (3FED FAAB | "D"ABde dBAF | "A"AFEG "D"FDD2 :|
"D"defg a2ab | "D"afdf "Em"eBB2 | "D"defg a2ab | "D"afdf "A"e4 |
"D"fd~d2 Ad~d2 | "A"ed^cd egfe | "D"dBAF A2AB | "A"AFEG "D"FDD2 :||
